icons/forbid-two-line.svg

<svg xmlns="http://www.w3.org/2000/svg" width="24" height="24" fill="none"><g clip-path="url(#a)"><g><path fill="#121212" d="M12 22C6.477 22 2 17.523 2 12C2 6.477 6.477 2 12 2C17.523 2 22 6.477 22 12C22 17.523 17.523 22 12 22ZM12 20C14.1217 20 16.1566 19.1571 17.6569 17.6569C19.1571 16.1566 20 14.1217 20 12C20 9.87827 19.1571 7.84344 17.6569 6.34315C16.1566 4.84285 14.1217 4 12 4C9.87827 4 7.84344 4.84285 6.34315 6.34315C4.84285 7.84344 4 9.87827 4 12C4 14.1217 4.84285 16.1566 6.34315 17.6569C7.84344 19.1571 9.87827 20 12 20ZM16.891 8.523L8.523 16.891C7.97638 16.5015 7.49849 16.0236 7.109 15.477L15.477 7.109C16.0236 7.49849 16.5015 7.97638 16.891 8.523Z"/></g></g><defs><clipPath id="a"><rect width="24" height="24" fill="white"/></clipPath></defs></svg>

<svg width="24" height="24" fill="none" xmlns="http://www.w3.org/2000/svg"><g clip-path="url(#a)"><path d="M12 22C6.477 22 2 17.523 2 12S6.477 2 12 2s10 4.477 10 10-4.477 10-10 10Zm0-2a8 8 0 1 0 0-16.001A8 8 0 0 0 12 20Zm4.891-11.477-8.368 8.368a6.04 6.04 0 0 1-1.414-1.414l8.368-8.368a6.04 6.04 0 0 1 1.414 1.414Z" /></g><defs><clipPath id="a"><path fill="#fff" d="M0 0h24v24H0z"/></clipPath></defs></svg>
